img/icon/bouquet-icon.svg

<svg width="52" height="52" viewBox="0 0 52 52" fill="none" xmlns="http://www.w3.org/2000/svg">
<g clip-path="url(#clip0)">
<path d="M35.7023 13.8987C35.9138 13.8987 36.1271 13.882 36.3401 13.8483C37.4002 13.6802 38.3313 13.1093 38.962 12.2408L42.7894 6.97096C42.9445 6.75738 42.978 6.47869 42.8779 6.23443C42.7777 5.99018 42.5582 5.81519 42.2978 5.77192C42.23 5.76065 40.7289 5.51415 38.896 5.49384C38.309 3.75774 37.6115 2.40706 37.5793 2.3449C37.4577 2.1106 37.2234 1.95602 36.9601 1.93642C36.6972 1.91631 36.4422 2.03473 36.2871 2.24842L32.4597 7.51828C31.829 8.38674 31.5742 9.44878 31.7423 10.5089C31.8667 11.2939 32.2125 12.0077 32.7359 12.5817C32.1565 13.2702 31.1364 14.523 30.018 16.0822V15.4162C30.018 14.9955 29.677 14.6545 29.2563 14.6545C28.8356 14.6545 28.4946 14.9955 28.4946 15.4162V18.3265C27.8833 19.2835 27.2879 20.2952 26.7615 21.3223V17.0447C26.7615 17.0446 26.7615 17.0444 26.7615 17.0442V15.7317L28.9809 13.5124C29.2784 13.2149 29.2784 12.7326 28.9809 12.4352C28.6834 12.1377 28.2011 12.1377 27.9037 12.4352L26.7613 13.5773V11.2197C28.6138 10.8626 30.0178 9.23001 30.0178 7.27484V0.761749C30.0178 0.497789 29.8811 0.252618 29.6566 0.113782C29.432 -0.0250537 29.1517 -0.0376475 28.9155 0.0804695C28.8539 0.111243 27.4956 0.794452 25.9997 1.85466C24.5045 0.794859 23.1463 0.111751 23.0838 0.0804695C22.8475 -0.0376475 22.5671 -0.0249522 22.3427 0.113782C22.1181 0.252618 21.9814 0.497789 21.9814 0.761749V7.27484C21.9814 9.23001 23.3854 10.8627 25.2379 11.2197V15.2055L23.2817 13.2493C22.9842 12.9519 22.5019 12.9519 22.2045 13.2493C21.9071 13.5468 21.9071 14.0291 22.2045 14.3265L25.238 17.36V21.3223C23.2951 17.5318 20.4126 13.9469 19.2636 12.5817C19.787 12.0077 20.1329 11.2939 20.2573 10.5089C20.4254 9.44878 20.1705 8.38674 19.5398 7.51828L15.7125 2.24842C15.5574 2.03473 15.3024 1.91641 15.0394 1.93642C14.7762 1.95602 14.5419 2.1106 14.4202 2.3449C14.3877 2.40706 13.6903 3.75784 13.1033 5.49394C11.2713 5.51446 9.76945 5.76065 9.70151 5.77192C9.4411 5.81519 9.22152 5.99018 9.12148 6.23443C9.02134 6.47869 9.05486 6.75738 9.20994 6.97096L13.0373 12.2408C13.668 13.1093 14.5991 13.6801 15.6593 13.8483C15.8723 13.8821 16.0854 13.8987 16.2971 13.8987C16.9029 13.8987 17.496 13.7612 18.0398 13.4964C18.2751 13.7765 18.6002 14.1701 18.985 14.6546H18.3162C17.8956 14.6546 17.5545 14.9956 17.5545 15.4163C17.5545 15.8369 17.8956 16.178 18.3162 16.178H20.1561C21.269 17.6745 22.5588 19.5576 23.6075 21.5004C22.3686 20.2829 20.9918 19.1905 19.4884 18.2337C14.9268 15.3309 10.8168 14.6889 10.644 14.663C10.4249 14.6302 10.202 14.6945 10.034 14.8391C9.86594 14.9838 9.76935 15.1946 9.76935 15.4163C9.76935 15.538 9.78611 18.4449 11.2389 22.492C12.5507 26.1465 15.3374 31.4532 21.1673 36.1351V38.9264L17.9365 51.042C17.8754 51.2706 17.9242 51.5147 18.0684 51.7024C18.2125 51.89 18.4358 52 18.6724 52H33.3268C33.5635 52 33.7867 51.89 33.9308 51.7024C34.075 51.5147 34.1238 51.2707 34.0627 51.042L30.832 38.9264V36.1351C36.6617 31.4532 39.4485 26.1465 40.7604 22.492C42.2132 18.4449 42.2299 15.538 42.2299 15.4163C42.2299 15.1946 42.1332 14.9838 41.9652 14.8391C41.7972 14.6944 41.5747 14.63 41.3551 14.663C41.2543 14.6781 38.8477 15.0503 35.6791 16.5087C33.603 17.4642 30.9078 19.0373 28.3852 21.5132C29.4353 19.5663 30.7284 17.6781 31.8437 16.178H33.6829C34.1036 16.178 34.4446 15.8369 34.4446 15.4163C34.4446 14.9956 34.1036 14.6546 33.6829 14.6546H33.0146C33.3993 14.1702 33.7242 13.7766 33.9595 13.4965C34.5034 13.7612 35.0965 13.8987 35.7023 13.8987ZM40.7967 7.12219L39.6465 8.70585C39.5923 8.18453 39.4937 7.62635 39.3467 7.02855C39.8831 7.04683 40.38 7.08289 40.7967 7.12219ZM12.3527 8.70585L11.2023 7.12189C11.6186 7.08258 12.1154 7.04673 12.6525 7.02865C12.5055 7.62645 12.4069 8.18453 12.3527 8.70585ZM17.7546 11.8982C17.2153 12.2898 16.5559 12.448 15.8977 12.3436C15.2396 12.2392 14.6615 11.8849 14.2699 11.3457C13.1776 9.84172 14.3362 6.28765 15.2384 4.18826L18.3071 8.41345C19.1154 9.52647 18.8676 11.0897 17.7546 11.8982ZM28.4944 2.05494V4.0091C28.1447 3.62022 27.7353 3.22738 27.2663 2.83118C27.7109 2.53076 28.1341 2.26802 28.4944 2.05494ZM23.5048 7.27484V2.05281C25.4686 3.22139 28.4945 5.41605 28.4945 7.27484C28.4945 8.6505 27.3753 9.76962 25.9997 9.76962C24.6242 9.76962 23.5048 8.6505 23.5048 7.27484ZM12.6962 22.0425C11.7948 19.5519 11.4722 17.4989 11.3568 16.3672C12.7773 16.7132 15.6309 17.5847 18.6705 19.519C21.1885 21.1214 23.3269 23.1267 25.0258 25.4793C26.9915 28.2009 28.3731 31.4034 29.142 35.0079H27.3678C26.3937 30.7348 24.4766 27.0974 21.6625 24.1897C21.37 23.8874 20.8878 23.8795 20.5854 24.1722C20.2831 24.4647 20.2753 24.947 20.5679 25.2492C23.1108 27.8767 24.8679 31.1568 25.8018 35.0079H22.1966C16.617 30.5533 13.9506 25.5089 12.6962 22.0425ZM29.3085 36.5313V38.2644H22.6906V36.5313H29.3085ZM32.3354 50.4765H29.1089L28.9801 49.5095C28.9245 49.0926 28.5414 48.7994 28.1244 48.8552C27.7074 48.9107 27.4145 49.2938 27.47 49.7108L27.5721 50.4764H19.664L22.5142 39.7878H26.1469L27.0358 46.4542C27.0867 46.8371 27.4139 47.1154 27.7899 47.1154C27.8234 47.1154 27.8573 47.1132 27.8914 47.1086C28.3084 47.053 28.6013 46.6699 28.5458 46.2529L27.6837 39.7878H29.485L32.3354 50.4765ZM36.2677 17.9149C38.1089 17.0628 39.694 16.5989 40.6423 16.3677C40.5268 17.4998 40.2041 19.5524 39.303 22.0425C38.107 25.3475 35.6281 30.0873 30.5638 34.3824C29.8309 31.1082 28.6093 28.1478 26.9207 25.5537C29.8488 21.468 33.6028 19.1481 36.2677 17.9149ZM33.6922 8.41345L36.7614 4.18755C37.6644 6.28593 38.8238 9.83878 37.7294 11.3457C37.3377 11.8849 36.7596 12.2392 36.1015 12.3436C35.4433 12.4479 34.7839 12.2898 34.2448 11.8982C33.1316 11.0897 32.8838 9.52658 33.6922 8.41345Z" fill="#AE7C78"/>
<path d="M19.1329 21.9564C18.5945 21.5509 18.028 21.1633 17.4489 20.8045C17.0912 20.5828 16.6217 20.6931 16.4001 21.0507C16.1785 21.4083 16.2887 21.8778 16.6463 22.0994C17.1862 22.434 17.7144 22.7954 18.2163 23.1732C18.3536 23.2766 18.5144 23.3266 18.6739 23.3266C18.905 23.3266 19.1332 23.2219 19.283 23.0231C19.5362 22.687 19.4688 22.2095 19.1329 21.9564Z" fill="#AE7C78"/>
</g>
<defs>
<clipPath id="clip0">
<rect width="52" height="52" fill="white"/>
</clipPath>
</defs>
</svg>

<svg width="52" height="52" fill="none" xmlns="http://www.w3.org/2000/svg"><g clip-path="url(#clip0)" fill="#AE7C78"><path d="M35.7 13.9a4.08 4.08 0 003.26-1.66l3.83-5.27a.76.76 0 00-.5-1.2c-.06 0-1.56-.26-3.4-.28a24.7 24.7 0 00-1.31-3.15.76.76 0 00-1.3-.1l-3.82 5.28a4 4 0 00.28 5.06 58.7 58.7 0 00-2.72 3.5v-.66a.76.76 0 10-1.53 0v2.9c-.6.96-1.2 1.98-1.73 3v-5.58l2.22-2.23a.76.76 0 10-1.08-1.07l-1.14 1.14v-2.36a4.02 4.02 0 003.26-3.95V.77a.76.76 0 00-1.1-.69C28.85.11 27.5.79 26 1.85A24.7 24.7 0 0023.08.08a.76.76 0 00-1.1.68v6.51c0 1.96 1.4 3.6 3.26 3.95v3.99l-1.96-1.96a.76.76 0 00-1.08 1.08l3.04 3.03v3.96a50.95 50.95 0 00-5.98-8.74 3.99 3.99 0 00.28-5.06l-3.83-5.27a.76.76 0 00-1.29.1c-.03.06-.73 1.4-1.32 3.14a24.6 24.6 0 00-3.4.28.76.76 0 00-.49 1.2l3.83 5.27a4 4 0 005 1.26l.95 1.15h-.67a.76.76 0 000 1.53h1.84a45.2 45.2 0 013.45 5.32 25.06 25.06 0 00-4.12-3.27 25.01 25.01 0 00-8.85-3.57.76.76 0 00-.87.76c0 .12.02 3.02 1.47 7.07a30.98 30.98 0 009.93 13.65v2.79l-3.23 12.11a.76.76 0 00.73.96h14.66a.76.76 0 00.73-.96l-3.23-12.11v-2.8a30.98 30.98 0 009.93-13.64 22.91 22.91 0 001.47-7.07.76.76 0 00-.87-.76c-.1.02-2.51.39-5.68 1.85a25.96 25.96 0 00-7.3 5 45.24 45.24 0 013.46-5.33h1.84a.76.76 0 000-1.53h-.67l.95-1.15c.54.26 1.14.4 1.74.4zm5.1-6.78l-1.15 1.59c-.06-.53-.16-1.08-.3-1.68.53.02 1.03.05 1.45.1zM12.35 8.71L11.2 7.12c.42-.04.92-.07 1.45-.1-.14.6-.24 1.16-.3 1.69zm5.4 3.19a2.48 2.48 0 01-3.48-.55c-1.1-1.5.07-5.06.97-7.16L18.3 8.4a2.5 2.5 0 01-.56 3.49zM28.5 2.05v1.96c-.35-.39-.75-.78-1.22-1.18.44-.3.86-.56 1.22-.78zM23.5 7.27V2.05c1.97 1.17 5 3.37 5 5.22a2.5 2.5 0 01-5 0zM12.7 22.04c-.9-2.49-1.23-4.54-1.34-5.67 1.42.34 4.27 1.21 7.31 3.15 2.52 1.6 4.66 3.6 6.36 5.96A25.05 25.05 0 0129.14 35h-1.77a22.43 22.43 0 00-5.7-10.82.76.76 0 10-1.1 1.06c2.54 2.63 4.3 5.9 5.23 9.76h-3.6a29.5 29.5 0 01-9.5-12.97zm16.6 14.5v1.72h-6.6v-1.73h6.6zm3.04 13.94H29.1l-.13-.97a.76.76 0 10-1.51.2l.1.77h-7.9l2.84-10.7h3.64l.89 6.67a.76.76 0 101.5-.2l-.86-6.46h1.8l2.86 10.69zm3.93-32.57a24.3 24.3 0 014.37-1.54 24.2 24.2 0 01-1.34 5.67 29.32 29.32 0 01-8.74 12.34 26.8 26.8 0 00-3.64-8.83 23.8 23.8 0 019.35-7.64zm-2.58-9.5l3.07-4.22c.9 2.1 2.06 5.65.97 7.16a2.48 2.48 0 01-3.49.55 2.5 2.5 0 01-.55-3.49z"/><path d="M19.13 21.96c-.54-.4-1.1-.8-1.68-1.16a.76.76 0 10-.8 1.3c.54.33 1.06.7 1.57 1.07a.76.76 0 001.06-.15.76.76 0 00-.15-1.06z"/></g><defs><clipPath id="clip0"><path fill="#fff" d="M0 0h52v52H0z"/></clipPath></defs></svg>
